X:11
T:Queen of the Highlands
C:David Milligan
D:"The big day in" by Simon thoumire & David Milligan
Z:Transcribed by Lionel Gueganton
L:1/8
M:4/4
K:C
|: dcBcdGdc  | BcdBcAFA  | BGcGBGcG    | AFAcfece     | dcBcdGdc    | Bcd/c/Bdede |
   fefefece  | dcAdG4   :| Bcdefefe    |  dcdefcAc    | dBGBdBc/B/A | FAcABgdg    |
   Bcdefefe  | dcdefgac' | bgfag2gd    | fdc/B/AG4    | Bcdefefe    | dcdefcAc    |
 dBGBdBc/B/A | FAcABcdg  | dedBGAB/A/G | A^FF/G/AdAFD | dBAcBdce    | fdc/B/AG4   |

